X:25
T:Seamus Mc Guire's
R:reel
D:"Chasing the bear" by Jon Hicks
Z:Transcribed by Lionel Gueganton
L:1/8
M:4/4
K:D
|: d2 fd BA Fd    | d/d/d fe fg fe | d/d/d fd AF DD | D/E/D ED CE Ad  |
   d2 fd BA Fd    | d/d/d fe fg fe | d/d/d fd AF DD | D/E/D ED CE EF  |
   F/E/D AD BD AG | F/E/D AG CE AF | ED AD BD AG    | F/E/D ED A,D DD |
   D/E/D dd cA BA | ED AF CE AA    | FA df ec dc    | AG FA GE Dd    :|

